icons/megaphone-17.svg

<svg width="16" height="17" viewBox="0 0 16 17" fill="none" xmlns="http://www.w3.org/2000/svg">
<path fill-rule="evenodd" clip-rule="evenodd" d="M13.6784 2.44213C13.8748 2.5352 14 2.7331 14 2.95045L13.0827 2.51399V2.51398L13.0833 2.51346C13.0835 2.51332 13.0832 2.51358 13.0824 2.51422L13.0716 2.52261C13.0604 2.53115 13.0413 2.54545 13.0143 2.56471C12.9601 2.60322 12.8742 2.66154 12.7561 2.73321C12.5198 2.87654 12.1549 3.07328 11.6583 3.27193C10.6669 3.66847 9.14491 4.07504 7.06558 4.07545C6.87888 3.95671 6.65729 3.88794 6.41964 3.88794H5C3.34314 3.88794 2 5.23108 2 6.88794C2 8.14726 2.77593 9.22535 3.8758 9.67021C3.87527 9.68019 3.875 9.69031 3.875 9.70044C3.875 11.4399 4.23962 12.6485 4.48442 13.2634C4.68109 13.7574 5.15728 14.0129 5.62274 14.0129H6.52011C7.03378 14.0129 7.44127 13.7216 7.67991 13.37C7.91715 13.0205 8.03095 12.5528 7.91234 12.0979C7.7624 11.5228 7.62591 10.7222 7.62501 9.71056C9.42029 9.77551 10.758 10.1439 11.6583 10.504C12.1549 10.7026 12.5198 10.8993 12.7561 11.0427C12.8742 11.1143 12.9601 11.1727 13.0143 11.2112C13.0413 11.2304 13.0604 11.2448 13.0716 11.2533L13.0824 11.2616L13.0831 11.2623C13.2512 11.3987 13.4826 11.4265 13.6784 11.3338C13.8748 11.2407 14 11.0428 14 10.8254V2.95045L13.0824 2.51423L13.0827 2.51399C13.2508 2.37731 13.4825 2.34931 13.6784 2.44213ZM5.00157 9.88794C5.0263 11.3645 5.33858 12.3674 5.52963 12.8473C5.53277 12.8552 5.53767 12.8623 5.54979 12.8699C5.56366 12.8786 5.58833 12.8879 5.62274 12.8879H6.52011C6.58232 12.8879 6.67143 12.8526 6.74909 12.7382C6.82818 12.6217 6.8504 12.484 6.82373 12.3817C6.6604 11.7553 6.51686 10.9184 6.50138 9.88524C6.47437 9.88704 6.44711 9.88794 6.41964 9.88794H5.00157ZM7.625 8.58485C9.57597 8.65059 11.0546 9.05082 12.0761 9.45943C12.3843 9.58269 12.6504 9.70659 12.875 9.82186V3.95399C12.6504 4.06934 12.3843 4.19319 12.0761 4.31647C11.0546 4.72507 9.57597 5.1253 7.625 5.19105V8.58485ZM13.0824 2.51423L13.0821 2.51446L13.0824 2.51422V2.51423ZM3.125 6.88794C3.125 5.85241 3.96447 5.01294 5 5.01294H6.41964C6.46402 5.01294 6.5 5.04892 6.5 5.09329V8.68258C6.5 8.72696 6.46402 8.76294 6.41964 8.76294H5C3.96447 8.76294 3.125 7.92347 3.125 6.88794Z" fill="#272431"/>
</svg>

<svg xmlns="http://www.w3.org/2000/svg" width="16" height="17" viewBox="0 0 16 17"><path fill-rule="evenodd" d="M13.678 2.442A.562.562 0 0114 2.95l-.917-.436-.011.009-.058.042c-.054.038-.14.097-.258.168a7.42 7.42 0 01-1.098.539c-.991.396-2.513.803-4.592.803a1.2 1.2 0 00-.646-.187H5A3 3 0 003.876 9.67l-.001.03c0 1.74.365 2.949.61 3.563.196.494.672.75 1.138.75h.897c.514 0 .921-.291 1.16-.643a1.58 1.58 0 00.232-1.272 9.507 9.507 0 01-.287-2.387c1.795.065 3.133.433 4.033.793a7.42 7.42 0 011.098.539 4.267 4.267 0 01.316.21l.01.009h.001a.563.563 0 00.917-.437V2.95l-.918-.436a.562.562 0 01.596-.072zM5.002 9.888c.024 1.476.337 2.48.528 2.96a.045.045 0 00.02.022.139.139 0 00.073.018h.897c.062 0 .151-.035.23-.15a.456.456 0 00.074-.356A10.527 10.527 0 016.5 9.885a1.23 1.23 0 01-.081.003H5.002zm2.623-1.303c1.951.066 3.43.466 4.451.874.308.124.574.248.799.363V3.954a9.03 9.03 0 01-.799.362c-1.021.41-2.5.81-4.451.875v3.394zm5.457-6.07zM3.125 6.887c0-1.036.84-1.875 1.875-1.875h1.42a.08.08 0 01.08.08v3.59a.08.08 0 01-.08.08H5a1.875 1.875 0 01-1.875-1.875z"/></svg>
